svgs/duotone/school-flag.svg

<svg xmlns="http://www.w3.org/2000/svg" viewBox="0 0 576 512"><!--! Font Awesome Pro 6.6.0 by @fontawesome - https://fontawesome.com License - https://fontawesome.com/license (Commercial License) Copyright 2024 Fonticons, Inc. --><defs><style>.fa-secondary{opacity:.4}</style></defs><path class="fa-secondary" d="M0 224L0 448c0 35.3 28.7 64 64 64l176 0 0-112c0-26.5 21.5-48 48-48s48 21.5 48 48l0 112 176 0c35.3 0 64-28.7 64-64l0-224c0-35.3-28.7-64-64-64l-101.7 0L320.7 96l-.7 0-16 0-48 0-.7 0-89.6 64L64 160c-35.3 0-64 28.7-64 64zm64 16c0-8.8 7.2-16 16-16l32 0c8.8 0 16 7.2 16 16l0 64c0 8.8-7.2 16-16 16l-32 0c-8.8 0-16-7.2-16-16l0-64zm0 128c0-8.8 7.2-16 16-16l32 0c8.8 0 16 7.2 16 16l0 64c0 8.8-7.2 16-16 16l-32 0c-8.8 0-16-7.2-16-16l0-64zM336 240a48 48 0 1 1 -96 0 48 48 0 1 1 96 0zm112 0c0-8.8 7.2-16 16-16l32 0c8.8 0 16 7.2 16 16l0 64c0 8.8-7.2 16-16 16l-32 0c-8.8 0-16-7.2-16-16l0-64zm0 128c0-8.8 7.2-16 16-16l32 0c8.8 0 16 7.2 16 16l0 64c0 8.8-7.2 16-16 16l-32 0c-8.8 0-16-7.2-16-16l0-64z"/><path class="fa-primary" d="M297.4 1.4c2-.9 4.2-1.4 6.6-1.4l96 0c8.8 0 16 7.2 16 16l0 64c0 8.8-7.2 16-16 16l-80 0-16 0-48 0 0-64c0-17.7 14.3-32 32-32c3.3 0 6.4 .5 9.4 1.4zM80 224l32 0c8.8 0 16 7.2 16 16l0 64c0 8.8-7.2 16-16 16l-32 0c-8.8 0-16-7.2-16-16l0-64c0-8.8 7.2-16 16-16zm384 0l32 0c8.8 0 16 7.2 16 16l0 64c0 8.8-7.2 16-16 16l-32 0c-8.8 0-16-7.2-16-16l0-64c0-8.8 7.2-16 16-16zM64 368c0-8.8 7.2-16 16-16l32 0c8.8 0 16 7.2 16 16l0 64c0 8.8-7.2 16-16 16l-32 0c-8.8 0-16-7.2-16-16l0-64zm400-16l32 0c8.8 0 16 7.2 16 16l0 64c0 8.8-7.2 16-16 16l-32 0c-8.8 0-16-7.2-16-16l0-64c0-8.8 7.2-16 16-16z"/></svg>

<svg xmlns="http://www.w3.org/2000/svg" viewBox="0 0 576 512"><!--! Font Awesome Pro 6.4.0 by @fontawesome - https://fontawesome.com License - https://fontawesome.com/license (Commercial License) Copyright 2023 Fonticons, Inc. --><defs><style>.fa-secondary{opacity:.4}</style></defs><path class="fa-primary" d="M297.4 1.4c2-.9 4.2-1.4 6.6-1.4h96c8.8 0 16 7.2 16 16V80c0 8.8-7.2 16-16 16H320 304 256V32c0-17.7 14.3-32 32-32c3.3 0 6.4 .5 9.4 1.4zM80 224h32c8.8 0 16 7.2 16 16v64c0 8.8-7.2 16-16 16H80c-8.8 0-16-7.2-16-16V240c0-8.8 7.2-16 16-16zm384 0h32c8.8 0 16 7.2 16 16v64c0 8.8-7.2 16-16 16H464c-8.8 0-16-7.2-16-16V240c0-8.8 7.2-16 16-16zM64 368c0-8.8 7.2-16 16-16h32c8.8 0 16 7.2 16 16v64c0 8.8-7.2 16-16 16H80c-8.8 0-16-7.2-16-16V368zm400-16h32c8.8 0 16 7.2 16 16v64c0 8.8-7.2 16-16 16H464c-8.8 0-16-7.2-16-16V368c0-8.8 7.2-16 16-16z"/><path class="fa-secondary" d="M255.3 96l-89.6 64H64c-35.3 0-64 28.7-64 64V448c0 35.3 28.7 64 64 64H240V400c0-26.5 21.5-48 48-48s48 21.5 48 48V512H512c35.3 0 64-28.7 64-64V224c0-35.3-28.7-64-64-64H410.3L320.7 96H255.3zM288 192a48 48 0 1 1 0 96 48 48 0 1 1 0-96zM64 240c0-8.8 7.2-16 16-16h32c8.8 0 16 7.2 16 16v64c0 8.8-7.2 16-16 16H80c-8.8 0-16-7.2-16-16V240zm400-16h32c8.8 0 16 7.2 16 16v64c0 8.8-7.2 16-16 16H464c-8.8 0-16-7.2-16-16V240c0-8.8 7.2-16 16-16zM64 368c0-8.8 7.2-16 16-16h32c8.8 0 16 7.2 16 16v64c0 8.8-7.2 16-16 16H80c-8.8 0-16-7.2-16-16V368zm384 0c0-8.8 7.2-16 16-16h32c8.8 0 16 7.2 16 16v64c0 8.8-7.2 16-16 16H464c-8.8 0-16-7.2-16-16V368z"/></svg>
